X:1
T:Title
%%score { 1 | 2 }
L:1/8
M:6/8
K:Eb
V:1 treble nm="Grand Piano"
V:2 bass 
V:1
 z3 z2[Q:1/4=90] E | G2 F E2 G | [GB]2 [Ac] [GB]2 [GB] | [Ge]2 [Ge] [Fd]2 [Ec] | %4
[M:5/8] [DB]-[DB]- [DB]3 |[M:1/8] E |[M:3/4] G2 F E2 G | [GB]2 [Ac] [GB]2 A | G2 GF EF | E6 | %10
 [Ge]2 [Ge]e dc | [GB]2 [EG] [GB]2 [GB] | [Ac]2 [Ac] [GB]2 [EG] |[M:5/8] [DF]-[DF]- [DF]3 | %14
[M:1/8] E |[M:3/4] G2 F E2 G | [GB]2 [Ac] [GB]2 A | G2 GF EF |[M:7/4] E6 z2 z2 z4 |] %19
V:2
 z3 z2 [E,G,] | [E,B,E]2 [E,A,B,] [E,G,B,]2 [E,B,E] | [E,E]2 [E,E] [E,E]2 [E,E] | %3
 [E,B,]2 [E,B,] [F,B,]2 [F,=A,] |[M:5/8] [B,,B,]-[B,,B,]- [B,,B,]3 |[M:1/8] [E,G,] | %6
[M:3/4] [E,B,E]2 [E,A,B,] [E,G,B,]2 [E,B,E] | [E,E]2 [E,E] [E,E]2[K:treble] [A,CF] | %8
 [B,E]2[K:bass] [B,E][B,,A,B,] [B,,G,B,][B,,A,B,] | [E,G,B,]6 | %10
 [E,B,]2 [E,B,][K:treble][A,CA] [A,DA][A,EA] | [E,E]2 [E,B,] [E,E]2 [E,E] | %12
 [A,E]2 [A,E] [E,E]2 [E,B,] |[M:5/8] [B,,B,]-[B,,B,]- [B,,B,]3 |[M:1/8] [E,G,] | %15
[M:3/4] [E,B,E]2 [E,A,B,] [E,G,B,]2 [E,B,E] | [E,E]2 [E,E] [E,E]2[K:treble] [A,CF] | %17
 [B,E]2[K:bass] [B,E][B,,A,B,] [B,,G,B,][B,,A,B,] |[M:7/4] [E,G,B,]6 z2 z2 z4 |] %19

